X:3125
T:Johnny Mickie's Slide
O:england
S:Denis Brooks
R:slide
E:7
I:speed 350
M:6/8
K:D
DE|FAF {AFE}F2 E|{c}D3 {c}D2 E|FGF {AFE}F2 D|E3 {D}E2 F|GAG {c}B2 G|FGF {c}A2 F|EFE {AFE}F2 E|{A}D3 {A}D2:|
F|ABA {cAG}A2F|{G} A3{G}A2F|ABA{cAG}A2 F|G3{AGF}G2E|GAG {c}B2G|FGF{c}A2F|EFE {AFE}F2E|{A}D3{A}D2:|


